packages/Snapp/src/LogOutIcon/index.svg

<?xml version="1.0" encoding="UTF-8"?>
<svg width="24px" height="24px" viewBox="0 0 24 24" version="1.1" xmlns="http://www.w3.org/2000/svg" xmlns:xlink="http://www.w3.org/1999/xlink">
    <title>Icons/24/LogOut</title>
    <g id="Icons/24/LogOut" stroke="none" stroke-width="1" fill="none" fill-rule="evenodd">
        <rect id="Container" fill-opacity="0" fill="#D8D8D8" fill-rule="nonzero" x="0" y="0" width="24" height="24"></rect>
        <path d="M10,19 C10.5522847,19 11,19.4477153 11,20 C11,20.5522847 10.5522847,21 10,21 L6,21 C4.34314575,21 3,19.6568542 3,18 L3,6 C3,4.34314575 4.34314575,3 6,3 L10,3 C10.5522847,3 11,3.44771525 11,4 C11,4.55228475 10.5522847,5 10,5 L6,5 C5.44771525,5 5,5.44771525 5,6 L5,18 C5,18.5522847 5.44771525,19 6,19 L10,19 Z M17.5857864,11 L14.2928932,7.70710678 C13.9023689,7.31658249 13.9023689,6.68341751 14.2928932,6.29289322 C14.6834175,5.90236893 15.3165825,5.90236893 15.7071068,6.29289322 L20.7071068,11.2928932 C21.0976311,11.6834175 21.0976311,12.3165825 20.7071068,12.7071068 L15.7071068,17.7071068 C15.3165825,18.0976311 14.6834175,18.0976311 14.2928932,17.7071068 C13.9023689,17.3165825 13.9023689,16.6834175 14.2928932,16.2928932 L17.5857864,13 L9,13 C8.44771525,13 8,12.5522847 8,12 C8,11.4477153 8.44771525,11 9,11 L17.5857864,11 L17.5857864,11 Z" id="Shape" fill="#404040" fill-rule="nonzero"></path>
    </g>
</svg>

<svg viewBox="0 0 24 24" xmlns="http://www.w3.org/2000/svg" fill="currentColor" focusable="false">
  <path d="M10 19a1 1 0 010 2H6a3 3 0 01-3-3V6a3 3 0 013-3h4a1 1 0 010 2H6a1 1 0 00-1 1v12a1 1 0 001 1h4zm7.586-8l-3.293-3.293a1 1 0 111.414-1.414l5 5a1 1 0 010 1.414l-5 5a1 1 0 01-1.414-1.414L17.586 13H9a1 1 0 010-2h8.586z" fill="none"/>
</svg>
